static/img/emoji/svg/fake-grinning-black-emoticon-face.svg

<svg xmlns="http://www.w3.org/2000/svg" width="478.125" height="478.125" viewBox="0 0 478.125 478.125"><path d="M239.062 0C107.1 0 0 107.1 0 239.062c0 131.963 107.1 239.062 239.062 239.062 131.963 0 239.062-107.1 239.062-239.062C478.125 107.1 371.025 0 239.062 0zM97.538 156.825l63.112-42.075 11.475 15.3-65.025 42.075-9.562-15.3zm36.337 34.425c0-11.475 7.65-19.125 19.125-19.125s19.125 7.65 19.125 19.125-7.65 19.125-19.125 19.125-19.125-7.65-19.125-19.125zm105.187 172.125C172.125 363.375 153 306 153 306s28.688 19.125 86.062 19.125S325.125 306 325.125 306 306 363.375 239.062 363.375zm86.063-153c-11.475 0-19.125-7.65-19.125-19.125s7.65-19.125 19.125-19.125 19.125 7.65 19.125 19.125-7.65 19.125-19.125 19.125zm45.9-38.25l-63.113-42.075 11.476-15.3 63.112 42.075-11.475 15.3z"/></svg>

<?xml version="1.0" encoding="iso-8859-1"?>
<!-- Generator: Adobe Illustrator 16.0.0, SVG Export Plug-In . SVG Version: 6.00 Build 0)  -->
<!DOCTYPE svg PUBLIC "-//W3C//DTD SVG 1.1//EN" "http://www.w3.org/Graphics/SVG/1.1/DTD/svg11.dtd">
<svg version="1.1" id="Capa_1" xmlns="http://www.w3.org/2000/svg" xmlns:xlink="http://www.w3.org/1999/xlink" x="0px" y="0px"
	 width="478.125px" height="478.125px" viewBox="0 0 478.125 478.125" style="enable-background:new 0 0 478.125 478.125;"
	 xml:space="preserve">
<g>
	<path d="M239.062,0C107.1,0,0,107.1,0,239.062c0,131.963,107.1,239.062,239.062,239.062c131.963,0,239.062-107.1,239.062-239.062
		C478.125,107.1,371.025,0,239.062,0z M97.538,156.825l63.112-42.075l11.475,15.3L107.1,172.125L97.538,156.825z M133.875,191.25
		c0-11.475,7.65-19.125,19.125-19.125s19.125,7.65,19.125,19.125s-7.65,19.125-19.125,19.125S133.875,202.725,133.875,191.25z
		 M239.062,363.375C172.125,363.375,153,306,153,306s28.688,19.125,86.062,19.125S325.125,306,325.125,306
		S306,363.375,239.062,363.375z M325.125,210.375c-11.475,0-19.125-7.65-19.125-19.125s7.65-19.125,19.125-19.125
		s19.125,7.65,19.125,19.125S336.6,210.375,325.125,210.375z M371.025,172.125l-63.113-42.075l11.476-15.3l63.112,42.075
		L371.025,172.125z"/>
</g>
<g>
</g>
<g>
</g>
<g>
</g>
<g>
</g>
<g>
</g>
<g>
</g>
<g>
</g>
<g>
</g>
<g>
</g>
<g>
</g>
<g>
</g>
<g>
</g>
<g>
</g>
<g>
</g>
<g>
</g>
</svg>
